icons/files/purescript.svg

<svg xmlns="http://www.w3.org/2000/svg" viewBox="0 0 256 256" fill="none">
  <rect x="14" y="14" width="228" height="228" rx="46" fill="white" />
  <path
    d="M162.64 164.105L149.601 151.93H92.3439L105.383 164.105H162.64ZM105.383 121.419L92.3439 133.593H149.601L162.64 121.419H105.383ZM162.634 103.082L149.601 90.9009H92.3439L105.383 103.082H162.634ZM86.3372 115.131L77.7001 106.518L45.7761 138.455C44.6386 139.598 44 141.146 44 142.759C44 144.372 44.6386 145.919 45.7761 147.063L77.712 179L86.3372 170.392L58.6841 142.762L86.3372 115.131ZM209.214 107.943L177.29 76L168.652 84.6137L196.27 112.244L168.652 139.881L177.26 148.488L209.214 116.557C209.78 115.992 210.229 115.321 210.536 114.581C210.842 113.842 211 113.05 211 112.25C211 111.45 210.842 110.658 210.536 109.919C210.229 109.18 209.78 108.508 209.214 107.943Z"
    fill="black"
  />
</svg>

<svg xmlns="http://www.w3.org/2000/svg" fill="none" viewBox="0 0 256 256"><rect width="228" height="228" x="14" y="14" fill="#fff" rx="46"/><path fill="#000" d="m162.64 164.105-13.039-12.175H92.344l13.039 12.175zm-57.257-42.686-13.04 12.174h57.258l13.039-12.174zm57.251-18.337-13.033-12.181H92.344l13.039 12.181zm-76.297 12.049-8.637-8.613-31.924 31.937a6.1 6.1 0 0 0 0 8.608L77.712 179l8.625-8.608-27.653-27.63zm122.877-7.188L177.29 76l-8.638 8.614 27.618 27.63-27.618 27.637 8.608 8.607 31.954-31.931a6.086 6.086 0 0 0 0-8.614"/></svg>
